X:1
T:Alleluia, Christus surrexit - Anerio
T:#
%%score [ 1 2 3 4 ]
L:1/8
Q:1/4=400
M:3/1
K:F
V:1 treble nm="Soprano" snm="S"
V:2 treble nm="Alto" snm="A"
V:3 treble-8 nm="Tenor" snm="T"
V:4 bass nm="Bass" snm="B"
V:1
"^Alleluia, Christus surrexit" (F4 G4 A4 B4 c8) | (G4 A4 B4 c4 d8) | (A12 B4 G8) || %3
w: Al\- * * * *|le\- * * * *|lu\- * *|
[Q:1/4=200] A8 c8 | c8 z2 B2"^Felice Anerio\n(c. 1560-1614)" d4 | %5
w: ia. Chris-|tus sur- re-|
[M:4/2][Q:1/4=200][Q:1/4=200][Q:1/4=200][Q:1/4=200] B2 B2 d4 B4 A4 | G16 | G8 ^F8 | G4 A6 A2 A4 | %9
w: xit, sur- re- xit a|mor-|tu- is|pri- mi- ti- ae|
 (F6 E2 D4) C4 | C12 C4 | C16 ||[M:3/1] x24 | %13
w: dor\- * * mi-|en- ti-|um.||
[M:3/1][Q:1/4=400][Q:1/4=400][Q:1/4=400][Q:1/4=400] z16 x8 | z16 x8 | z16 x8 || %16
w: |||
[Q:1/4=180] z8 G6 G2 | G4 A4 F6 F2 | B4 A4 z4 z2 d2- | %19
w: Quo- ni-|am per ho- mi-|nem mors et|
[M:4/2][Q:1/4=180][Q:1/4=180][Q:1/4=180][Q:1/4=180] d2 c2 B3 B A8 | c2 c2 c3 c =B8 | c6 G2 G8 | %22
w: * per ho- mi- nem|re- sur- re- cti- o|mor- tu- o-|
 G8 A2 A2 c3 c | c8 B4 A4 | G8 A4 z2 c2 | A2 =B2 c4 z4 z2 G2 | c2 A2 G4 z4 E4 | (A2 F4) E2 F8 | %28
w: rum, re- sur- re- cti-|o mor- tu-|o- rum. Al-|le- lu- ia, al-|le- lu- ia, al-|le\- * lu- ia.|
 z4 c4 A4 d4 | c4 B4 A8 | z8 d2 d2 d2 c2 | B4 (A6 G2 G2 FG) | A8 d8 | c8 B6 B2 | A2 G2 G4 G8 | %35
w: Et si- cut|in A- dam|om- nes mo- ri-|un- tur, * * * *|* i-|ta et in|Chri- sto om- nes|
 z2 F2 A2 AB c4 F2 F2 | A2 AB c4 F2 B2 A2 AB | c8 A8 | z4 A8 G4 | G8 E4 E4 | E4 ^F4 G4 A4- | %41
w: vi- vi- fi- ca- bun- tur, vi-|vi- fi- ca- bun- tur, vi- vi- fi- ca-|bun- tur.|Mor- tu-|us est prop-|ter de- lic- ta|
 A4 G4 A8 | z4 A4 A4 B4 | c4 d8 c4 | d4 (D2 E2 F2 G2 A4- | A4 G4) A8 || %46
w: * nos- tra,|prop- ter de-|lic- ta nos-|tra, nos\- * * * *|* * tra,|
[M:3/1][Q:1/4=360] G8 A8 =B8 | c16 G8 | A8 A8 G8 | F8 A8 d8 | %50
w: et re- sur-|re- xit|prop- ter ju-|sti- fi- ca-|
[M:3/1][Q:1/4=360][Q:1/4=360][Q:1/4=360][Q:1/4=360] c8 B16 | A8 (F4 G4 A4 F4 | G16 ^F8) || %53
w: ti- o-|nem nos\- * * *||
[Q:1/4=180] G8 z4 c4- | c4 c4 c8 | A2 A2 A4 A2 c4 c2 | %56
w: tram: i\-|* ta- que|e- pu- le- mur, e- pu-|
[M:4/2][Q:1/4=180][Q:1/4=180][Q:1/4=180][Q:1/4=180] c8 B4 z2 B2 | c3 c B4 z2 A2 B3 B | %58
w: le- mur in|a- zy- mis, in a- zy-|
 A2 A2 F2 G2 A2 A2 z4 | A4 B3 B A2 c2 A2 B2 | c2 G2 z4 z2 E2 F3 F | E2 G2 E2 F2 (G6 FE) | %62
w: mis si- ce- ri- ta- tis,|in a- zy- mis sin- ce- ri-|ta- tis, in a- zy-|mis sin- ce- ri- ta\- * *|
 D4 C2 G2 E4 F2 (G2- | GF F4 E2) F8 ||[M:3/1][Q:1/4=360] (F4 G4 A4 B4 c8) | (G4 A4 B4 c4 d8) | %66
w: * tis et ve- ri- ta\-|* * * * tis.|Al\- * * * *|le\- * * * *|
 (A12 B4 G8) |[M:3/1][Q:1/4=360][Q:1/4=360][Q:1/4=360][Q:1/4=360] A24 | z8 (F4 G4 A4 B4 | %69
w: lu\- * *|ia,|al\- * * *|
 c8) (G4 A4 B4 c4 | d8 c12 B4 | A8) G16 | E8 (C4 D4 E4 F4 | G12 A4 B4 c4 | d16) (A8 | B8) G16 | %76
w: * le\- * * *||* lu-|ia, al\- * * *||* le\-|* lu-|
[Q:1/4=300] !fermata!A24 |] %77
w: ia.|
V:2
 z16 (C4 D4 | E4 F4 G8) (D4 E4 | F4 C4 D8) E8 || F8 F8 | F4 z2 C2 F4 F2 D2 |[M:4/2] F8 F4 F4 | %6
w: Al\- *|* * * le\- *|* * * lu-|ia. Chris-|tus sur- re- xit, sur-|re- xit a|
 (_E2 D2 D8 C2 B,2 | C4) C4 D8 | D4 F6 F2 C4 | D8 A,8 | G,12 A,4 | A,16 ||[M:3/1] x24 | %13
w: mor\- * * * *|* tu- is|pri- mi- ti- ae|dor- mi-|en- ti-|um.||
[M:3/1] z8 (C4 D4 E4 F4 | G8) (D4 E4 F4 G4 | A8) (E6 F2 D8) || E8 E6 E2 | E4 F4 D6 D2 | %18
w: Al\- * * *|* le\- * * *|* lu\- * *|ia. Quo- ni-|am per ho- mi-|
 F4 F4 F4 E2 D2- |[M:4/2] (DE F4) E2 F4 C2 C2 | G3 G G4 (G6 F2 | E4) E4 D8 | E8 z4 C2 C2 | %23
w: nem mors et per ho\-|* * * mi- nem re- sur-|re- cti- o mor\- *|* tu- o-|rum, re- sur-|
 F3 F E4 D6 C2 | C8 C4 z2 C2 | F2 D2 C4 z4 z2 E2 | C2 D2 E4 z2 D2 (GFED) | (E2 C2) (C3 B,) A,8 | %28
w: re- cti- o mor- tu-|o- rum. Al-|le- lu- ia, al-|le- lu- ia, al- le\- * * *|* * lu\- * ia.|
 z4 C4 F6 F2 | A4 G4 E8 | z8 F2 F2 F2 E2 | F8 D8 | z8 F8 | F8 F6 G2 | E2 E2 D4 E8 | %35
w: Et si- cut|in A- dam|om- nes mo- ri-|un- tur,|i-|ta et in|Chri- sto om- nes|
 z4 z2 F,2 G,2 G,A, B,4 | A,4 z2 C2 D2 DE (F4- | F4 E4) F8 | z4 F8 D4 | D8 ^C8- | C8 D8 | %41
w: vi- vi- fi- ca- bun-|tur, vi- vi- fi- ca- bun\-|* * tur,|Mor- tu-|us est|* prop-|
 D4 E4 ^F8- | F16 | G16 | F8 D8- | D8 z8 ||[M:3/1] D8 F8 F8 | E16 E8 | F8 F8 E8 | D8 D8 F8 | %50
w: ter de- lic\-||ta|nos- tra,||et re- sur-|re- xit|prop- ter ju-|sti- fi- ca-|
[M:3/1] F8 (B,4 C4 D4 E4 | F16) F8 | D24 || D8 E8- | E4 E4 E8 | F2 F2 F2 C4 F4 F2 |[M:4/2] F8 D8 | %57
w: ti- o\- * * *|* nem|nos-|tram: i\-|* ta- que|e- pu- le- mur, e- pu-|le- mur|
 z4 D4 F3 F D4 | z8 C4 D3 D | C2 C2 F,2 G,2 A,2 A,2 z4 | E4 F3 F E4 z4 | z2 E2 C2 D2 E4 E4 | %62
w: in a- zy- mis,|in a- zy-|mis si- ce- ri- ta- tis,|in a- zy- mis|sin- ce- ri- ta- tis|
 z2 G2 E3 F G4 C2 D2 | G,2 C2 C4 A,8 ||[M:3/1] z16 (C4 D4 | E4 F4 G8) (D4 E4 | F4 C4 D8) E8 | %67
w: et ve- ri- ta- tis, et|ve- ri- ta- tis.|Al\- *|* * * le\- *|* * * lu-|
[M:3/1] F8 (F,4 G,4 A,4 B,4 | C8) (A,4 B,4 C4 D4 | E16 D4 E4) | F16 (E8 | F8) D16 | %72
w: ia, al\- * * *|* le\- * * *||* lu\-|* ia,|
 (C4 D4 E4 F4 G8- | G4 F4 E8 D8) | (D12 E4 F8) | (F16 E8) | !fermata!F24 |] %77
w: al\- * * * *||le\- * *|lu\- *|ia.|
V:3
 z8 (F4 G4 A4 B4 | c8) (G4 A4 B4 c4 | d4 e4 f8) c8 || F8 A8 | A4 z2 A2 d4 d2 B2 | %5
w: Al\- * * *|* le\- * * *|* * * lu-|ia. Chris-|tus sur- re- xit, sur-|
[M:4/2][K:treble-8] d8 d4 c4 | (B6 A2 G8- | G4) G4 A8 | =B4 c6 c2 A4 | A8 F4 (F4- | %10
w: re- xit a|mor\- * *|* tu- is|pri- mi- ti- ae|dor- mi- en\-|
 F4 E2 D2 E4) F4 | F16 ||[M:3/1] x24 |[M:3/1][K:treble-8] (F4 G4 A4 B4 c8) | (G4 A4 B4 c4 d8) | %15
w: * * * * ti-|um.||Al\- * * * *|le\- * * * *|
 (A4 B4 c6 d2 =B8) || c8 c6 c2 | c4 c4 B6 B2 | d4 c4 d4 c2 B2- | %19
w: lu\- * * * *|ia. Quo- ni-|am per ho- mi-|nem mors et per ho\-|
[M:4/2][K:treble-8] B2 F2 B4 c2 c2 f3 f | e8 d8 | c4 (c6 =BA B4) | c4 G2 G2 c3 c A4- | %23
w: * mi- nem re- sur- re- cti-|o mor-|tu- o\- * * *|rum, re- sur- re- cti- o|
 A4 G4 F4 (F4- | F4 E4) F8 | z4 z2 c2 A2 =B2 c4 | z4 z2 c2 A2 =B2 c2 G2 | c2 A2 G4 z4 F4 | %28
w: * mor- tu- o\-|* * rum.|Al- le- lu- ia,|al- le- lu- ia, al-|le- lu- ia. Et|
 (A6 B2 c4) B4 | A4 d4 c8 | A2 A2 F2 E2 D4 A4 | d2 d2 d2 c2 B8 | A8 B8- | B4 A4 d2 d2 d4 | %34
w: si\- * * cut|in A- dam|om- nes mo- ri- un- tur,|om- nes mo- ri- un-|tur, i\-|* ta et in Chri-|
 c4 =B4 c2 c2 G2 GA | (B2 A4 GF E4) F4 | z2 F2 G2 GA (B3 A/G/ FGAF | G8) F8 | c12 B4 | B8 A4 A4 | %40
w: sto om- nes vi- vi- fi- ca-|bun\- * * * * tur,|vi- vi- fi- ca- bun\- * * * * * *|* tur.|Mor- tu-|us est prop-|
 A4 A4 B8- | B8 A8- | A8 d8 | G8 G8 | B8 A8 | B8 A8 ||[M:3/1] B8 c8 d8 | G16 c8 | c16 c8 | %49
w: ter de- lic\-|* ta,|* prop-|ter de-|lic- ta|nos- tra,|et re- sur-|re- xit|prop- ter|
 A8 F8 B8 |[M:3/1][K:treble-8] A8 G8 (F8- | F4 G4 A8) D8 | B8 A16 || z4 G8 G4 | G12 c2 c2 | %55
w: ju- sti- fi-|ca- ti- o\-|* * * nem|nos- tram:|i- ta-|que e- pu-|
 c4 c2 A4 A2 A4- |[M:4/2][K:treble-8] A4 A4 F4 B3 B | A2 A2 B3 B A2 c2 B2 G2 | A4 B4 z2 A2 F2 G2 | %59
w: pe- mur, e- pu- le\-|* mur in a- zy-|mis, in a- zy- mis si- ce- ri-|ta- tis, si- ce- ri-|
 A2 A2 z4 c4 d3 d | c2 c2 A2 B2 (c6 BA | G4) A4 z2 c2 G2 A2 | =B4 c8 z2 G2 | E2 F2 G4 F8 || %64
w: ta- tis, in a- zy-|mis sin- ce- ri- ta\- * *|* tis et ve- ri-|ta- tis, et|ve- ri- ta- tis.|
[M:3/1] z8 (F4 G4 A4 B4 | c8) (G4 A4 B4 c4 | d4 e4 f4 B4 c8) |[M:3/1][K:treble-8] c8 c8 (F4 G4 | %68
w: Al\- * * *|* le\- * * *||lu- ia, al\- *|
 A4 B4 c8) A8 | G8 (c8 B8) | (F4 G4 A4 B4 c8) | c16 =B8 | G8 z8 (C4 D4 | E4 F4 G12 A4 | %74
w: * * * le-|lu- ia, *|al\- * * * *|le- lu-|ia, al\- *||
 B4 c4 d16) | d8 c16 | !fermata!c24 |] %77
w: |le- lu-|ia.|
V:4
 z16 x8 | z16 x8 | z16 x8 || z8 F,8 | F,8 B,,4 B,4 |[M:4/2] B,2 B,,2 B,4 B,4 F,4 | (G,6 F,2 _E,8- | %7
w: |||Chris-|tus sur- re-|xit, sur- re- xit a|mor\- * *|
 E,4) _E,4 D,8 | G,4 F,6 F,2 F,4 | D,12 A,,4 | C,12 F,,4 | F,,16 ||[M:3/1] x24 | %13
w: * tu- is|pri- mi- * ti\-ae|dor- mi-|en- ti-|um.||
[M:3/1] z16 (C,4 D,4 | E,4 F,4 G,8) (D,4 E,4 | F,4 G,4 A,6 F,2 G,8) || C,4 C,4 C,6 C,2 | %17
w: Al\- *|* * * le\- *||lu- ia. Quo- ni-|
 C,4 A,,4 B,,6 B,,2 | B,,4 F,4 z8 |[M:4/2] B,2 A,2 G,3 G, F,8 | C,2 C,2 C3 C G,8 | A,6 E,2 G,8 | %22
w: am per ho- mi-|nem mors|et per ho- mi- nem|re- sur- re- cti- o|mor- tu- o-|
 C,8 F,,2 F,,2 F,4- | F,2 F,2 C,4 D,6 A,,2 | C,8 F,,8 | z4 C,4 F,2 D,2 C,4 | %26
w: rum, re- sur- re\-|* cti- o mor- tu-|o- rum.|Al- le- lu- ia,|
 z4 C,4 F,2 D,2 C,2 C,2 | (A,,3 B,, C,2) C,2 F,,8 | F,4 F,8 D,4 | F,4 G,4 A,8 | %30
w: al- le- lu- ia, al-|le\- * * lu- ia.|Et si- cut|in A- dam|
 D,2 D,2 D,2 C,2 B,,4 A,,4 | z16 | z8 B,,8 | F,8 B,6 G,2 | A,2 C2 G,4 C,4 C,4 | %35
w: om- nes mo- ri- un- tur,||i-|ta et in|Chri- sto om- nes vi-|
 D,2 D,E, F,4 C,2 C,2 D,2 D,E, | F,4 C,2 C,2 B,,2 B,,C, D,4 | C,8 z8 | F,12 G,4 | G,,8 A,,8- | %40
w: vi- fi- ca- bun- tur, vi- vi- fi- ca-|bun- tur, vi- vi- fi- ca- bun-|tur.|Mor- tu-|us est|
 A,,8 z8 | z8 D,8 | D,8 D,8 | _E,16 | D,16 | G,8 D,8 ||[M:3/1] G,8 F,8 D,8 | C,16 C,8 | %48
w: |prop-|ter de-|lic-|ta|nos- tra,|et re- sur-|re- xit|
 F,8 F,8 C,8 | D,8 D,8 B,,8 |[M:3/1] F,,8 (G,,4 A,,4 B,,4 C,4 | D,12 E,4 F,8) | G,8 D,16 || %53
w: prop- ter ju-|sti- fi- ca-|ti- o\- * * *||nem nos-|
 G,,8 C,8- | C,4 C,4 C,8 | F,2 F,2 F,4 F,,4 F,2 F,2 |[M:4/2] F,8 B,,8 | F,4 G,3 G, F,2 F,2 G,3 G, | %58
w: tram: i\-|* ta- que|e- pu- le- mur, e- pu-|le- mur|in a- zy- mis, in a- zy-|
 F,2 F,2 D,2 E,2 (F,2 F,,2) B,,4 | F,4 D,2 E,2 F,2 F,2 z4 | C,4 D,3 D, C,2 C,2 A,,2 B,,2 | %61
w: mis si- ce- ri- ta\- * tis,|si- ce- ri- ta- tis,|in a- zy- mis sin- ce- ri-|
 C,2 C,2 z4 C,4 E,2 F,2 | G,4 C,4 z2 C,2 A,,2 B,,2 | C,8 F,,8 ||[M:3/1] z16 x8 | z16 x8 | z16 x8 | %67
w: ta- tis et ve- ri-|ta- tis, et ve- ri-|ta- tis.||||
[M:3/1] (F,4 G,4 A,4 B,4 C8) | F,8 F,8 F,,8 | (C,4 D,4 E,4 F,4 G,8) | (D,4 E,4 F,4 G,4 A,8 | %71
w: Al\- * * * *|le- lu- ia,|al\- * * * *|le\- * * * *|
 F,8) (G,8 G,,8) | C,16 z8 |"^3-" (C,4 D,4 E,4 F,4 G,8) | (G,,4 A,,4 B,,4 C,4 D,8) | (B,,8 C,16) | %76
w: * lu\- *|ia,|al\- * * * *|le\- * * * *|lu\- *|
 !fermata!F,,24 |] %77
w: ia.|

